X:36
T:RVW2/2/36 Three Weeks Before Easter
C:Ted Nevill, Little Bursted, Essex, 16 April 1904
L:1/4
Q:1/4=100
M:3/4
I:linebreak $
K:G
"^(Editorial suggestion)  " (D/G/) | G G (A/>G/) | F D D | G B d | A2 B | G G A |$ (F D) D | 
w: Three *|weeks be- fore *|Ea- ster the|days long and|clear, So|bright shall they|moan * and|
G B d | A2 B/c/ | d B G/G/ | E c B | A F E/E/ |$ D2"^(a)" D/D/ | D E c | B A G | D/D/ (E/F/) G- | 
w: blew in thy|ear As I|stepped in- to the|fo- rest to|ga- ther flo- wers|gay But the|fields they would|not yield me|an- y po- * sies.|
G2 ||$ (D/G/) | G G (A/>G/) | F D D | G B d | A2 B | G G A |$ (F D) D | G B d | A2 B/c/ | 
w: ||||||||||
d B G/G/ | E c B | A F E/E/ |$ D2"^(a) Last line & verses 3 & 5" D | D E c | (B A) G | D/D/ E F | 
w: |||* Young|men and young|mai- * dens|come a- long this|
G2 |] 
w: way.|



